X:64
T:Hjortingen
R:Polska
Z:Transcribed to abc by Jon Magnusson 080820
S:Efter Hjort Anders Olsson
O:Bingsjö, Dalarna
M:3/4
L:1/16
K:A
A3B c3d Tc3B|efec{c} A4 ME4|(3 A4a4g4 Tf3e|
defg a2ba g2Tf2|e2^de f2df e2B2|EGBG E8:|
|:{DED}C3E A2E2 MF2TF2-|F3A B2F2 MG2TG2-|
G3B e2B2 Mc2Tc2-|c3e f2c2 M^d2Td2-|^d3f b2f2 g3a|
Mg2fe ^defg a4|A2Bc d2fe dcBA|EGBG A8:|
|:e2fe dcBA GABc|d2fd e8|e2fe dcBA GABc|BAGA E8:|

